resources/svg/envelope-open.svg

<svg xmlns="http://www.w3.org/2000/svg" viewBox="0 0 15 15" fill="currentColor"><path d="M6.75585 0.349399C7.217 0.0858853 7.78312 0.0858856 8.24427 0.349399L14.2443 3.77797C14.4018 3.86798 14.539 3.98411 14.6517 4.11914L7.5 7.93335L0.348436 4.11918C0.461117 3.98413 0.59832 3.86799 0.755853 3.77797L6.75585 0.349399Z" fill="black"/><path d="M0.00012234 5.06674C8.14919e-05 5.07127 6.10352e-05 5.0758 6.10352e-05 5.08034V13.5C6.10352e-05 14.3284 0.671635 15 1.50006 15H13.5001C14.3285 15 15.0001 14.3284 15.0001 13.5V5.08034C15.0001 5.07578 15 5.07123 15 5.06668L7.5 9.06668L0.00012234 5.06674Z" fill="black"/></svg>

<svg xmlns="http://www.w3.org/2000/svg" viewBox="0 0 15 15" fill="currentColor"><path d="M6.756.35a1.5 1.5 0 011.488 0l6 3.428a1.5 1.5 0 01.408.341L7.5 7.933.348 4.12c.113-.135.25-.251.408-.341l6-3.429z" fill="currentColor"/><path d="M0 5.067V13.5A1.5 1.5 0 001.5 15h12a1.5 1.5 0 001.5-1.5V5.067l-7.5 4-7.5-4z" fill="currentColor"/></svg>
